web/themes/custom/subsites/bellcom_theme/assets/images/calendar.svg

<svg width="50" height="50" viewBox="0 0 80 80" fill="none" xmlns="http://www.w3.org/2000/svg">
<path d="M26.6667 6.66663V16.6666M53.3333 6.66663V16.6666M11.6667 30.3H68.3333M70 28.3333V56.6666C70 66.6666 65 73.3333 53.3333 73.3333H26.6667C15 73.3333 10 66.6666 10 56.6666V28.3333C10 18.3333 15 11.6666 26.6667 11.6666H53.3333C65 11.6666 70 18.3333 70 28.3333Z" stroke="black" stroke-width="1.5" stroke-miterlimit="10" stroke-linecap="round" stroke-linejoin="round"/>
<path d="M52.3167 45.6666H52.3467M52.3167 55.6666H52.3467M39.9833 45.6666H40.0167M39.9833 55.6666H40.0167M27.6467 45.6666H27.68M27.6467 55.6666H27.68" stroke="black" stroke-width="2" stroke-linecap="round" stroke-linejoin="round"/>
</svg>

<svg width="50" height="50" viewBox="0 0 80 80" fill="none" xmlns="http://www.w3.org/2000/svg"><path d="M26.667 6.667v10m26.666-10v10M11.667 30.3h56.666M70 28.333v28.334c0 10-5 16.666-16.667 16.666H26.667C15 73.333 10 66.667 10 56.667V28.333c0-10 5-16.666 16.667-16.666h26.666C65 11.667 70 18.333 70 28.333z" stroke="#000" stroke-width="1.5" stroke-miterlimit="10" stroke-linecap="round" stroke-linejoin="round"/><path d="M52.317 45.667h.03m-.03 10h.03m-12.364-10h.034m-.034 10h.034m-12.37-10h.033m-.033 10h.033" stroke="#000" stroke-width="2" stroke-linecap="round" stroke-linejoin="round"/></svg>
